img/nav/cactus.svg

<svg xmlns="http://www.w3.org/2000/svg" width="400" height="400"><defs><linearGradient id="a" x1="0%" y1="8%" x2="100%" y2="92%"><stop offset="10%" style="stop-color:#fc420f;stop-opacity:1"/><stop offset="100%" style="stop-color:#f88c0d;stop-opacity:1"/></linearGradient></defs><path style="fill:url(#a)" d="M187.67 1.132c-12.592 3.049-26.059 13.861-31.677 25.431-5.525 11.38-5.212 4.579-5.212 113.069v97.898l-2.148-.525c-14.513-3.543-26.123-15.109-29.486-29.373-.933-3.957-1.157-12.03-1.167-42.038-.009-30.821-.215-37.923-1.209-41.739-8.239-31.633-51.715-35.648-65.834-6.079l-2.89 6.052-.227 41.893c-.291 53.597.555 59.969 10.721 80.763 17.212 35.206 47.407 56.255 88.529 61.713l3.711.492V400h98.438V251.658l3.711-.46c40.391-5.004 71.586-26.756 88.547-61.745 10.167-20.973 10.993-27.211 10.703-80.763l-.227-41.893-2.823-5.911c-14.194-29.72-57.652-25.732-65.931 6.051-.956 3.673-1.17 11.213-1.179 41.626-.013 40.898-.217 43.109-4.774 51.658-5.048 9.471-19.614 20.248-27.368 20.248-.363 0-.659-31.215-.659-69.367 0-59.396-.17-70.037-1.184-74.024-6.642-26.128-33.893-42.356-60.365-35.946"/></svg>

<svg id="svg" xmlns="http://www.w3.org/2000/svg" xmlns:xlink="http://www.w3.org/1999/xlink" width="400" height="400" viewBox="0, 0, 400, 400">
<defs>
<linearGradient id="lgrad" x1="0%" y1="8%" x2="100%" y2="92%">
<stop offset="10%" style="stop-color:rgb(252,66,15);stop-opacity:1.00"/>
<stop offset="100%" style="stop-color:rgb(248,140,13);stop-opacity:1.00"/>
</linearGradient>
</defs>
<path style="fill:url(#lgrad);" d="M187.670 1.132 C 175.078 4.181,161.611 14.993,155.993 26.563 C 150.468 37.943,150.781 31.142,150.781 139.632 L 150.781 237.530 148.633 237.005 C 134.120 233.462,122.510 221.896,119.147 207.632 C 118.214 203.675,117.990 195.602,117.980 165.594 C 117.971 134.773,117.765 127.671,116.771 123.855 C 108.532 92.222,65.056 88.207,50.937 117.776 L 48.047 123.828 47.820 165.721 C 47.529 219.318,48.375 225.690,58.541 246.484 C 75.753 281.690,105.948 302.739,147.070 308.197 L 150.781 308.689 150.781 354.345 L 150.781 400.000 200.000 400.000 L 249.219 400.000 249.219 325.829 L 249.219 251.658 252.930 251.198 C 293.321 246.194,324.516 224.442,341.477 189.453 C 351.644 168.480,352.470 162.242,352.180 108.690 L 351.953 66.797 349.130 60.886 C 334.936 31.166,291.478 35.154,283.199 66.937 C 282.243 70.610,282.029 78.150,282.020 108.563 C 282.007 149.461,281.803 151.672,277.246 160.221 C 272.198 169.692,257.632 180.469,249.878 180.469 C 249.515 180.469,249.219 149.254,249.219 111.102 C 249.219 51.706,249.049 41.065,248.035 37.078 C 241.393 10.950,214.142 -5.278,187.670 1.132">
</path>
</svg>
